X:63
T:Marlne Valse
C:R. Robert: Tablatures
M:3/4
L:1/4
K:C
E|A2c|BA A/c/|edB|c/B/ A2-|A/B/ A/G/ E|E3-|E2:|
|:E|edf|ecd|edB|A3|BdB|A3-|A2:|
